icons/delete-bin-2-line.svg

<svg viewBox="0 0 24 24" fill="currentColor" xmlns="http://www.w3.org/2000/svg">
    <path d="M17 6H22V8H20V21C20 21.5523 19.5523 22 19 22H5C4.44772 22 4 21.5523 4 21V8H2V6H7V3C7 2.44772 7.44772 2 8 2H16C16.5523 2 17 2.44772 17 3V6ZM18 8H6V20H18V8ZM13.4142 13.9997L15.182 15.7675L13.7678 17.1817L12 15.4139L10.2322 17.1817L8.81802 15.7675L10.5858 13.9997L8.81802 12.232L10.2322 10.8178L12 12.5855L13.7678 10.8178L15.182 12.232L13.4142 13.9997ZM9 4V6H15V4H9Z"/>
</svg>

<svg xmlns="http://www.w3.org/2000/svg" viewBox="0 0 24 24">
    <g>
        <path fill="none" d="M0 0h24v24H0z"/>
        <path d="M17 6h5v2h-2v13a1 1 0 0 1-1 1H5a1 1 0 0 1-1-1V8H2V6h5V3a1 1 0 0 1 1-1h8a1 1 0 0 1 1 1v3zm1 2H6v12h12V8zm-4.586 6l1.768 1.768-1.414 1.414L12 15.414l-1.768 1.768-1.414-1.414L10.586 14l-1.768-1.768 1.414-1.414L12 12.586l1.768-1.768 1.414 1.414L13.414 14zM9 4v2h6V4H9z"/>
    </g>
</svg>
